Sources/FrostedUI/Resources/Icons.xcassets/refresh32.imageset/refresh-32.svg

<svg
  width="32"
  height="32"
  viewBox="0 0 32 32"
  fill="none"
  xmlns="http://www.w3.org/2000/svg"
  data-fui-icon="true"
>
  <path
    d="M29.25 18.75C29.25 22.5682 24.639 29.25 16.7 29.25C8.93577 29.25 4.11555 22.8592 3.90705 19.0063"
    stroke="currentColor"
    stroke-width="1.5"
    stroke-linecap="round"
    stroke-linejoin="round"
  />
  <path
    d="M10.25 18.75H4.25006C3.42163 18.75 2.75006 19.4216 2.75006 20.25V26.25M2.75 13.25C2.75 9.43182 7.36096 2.75 15.3 2.75 23.0642 2.75 27.8844 9.14081 28.0929 12.9937"
    stroke="currentColor"
    stroke-width="1.5"
    stroke-linecap="round"
    stroke-linejoin="round"
  />
  <path
    d="M21.75 13.25H27.7499C28.5784 13.25 29.2499 12.5784 29.2499 11.75V5.75"
    stroke="currentColor"
    stroke-width="1.5"
    stroke-linecap="round"
    stroke-linejoin="round"
  />
</svg>

<svg xmlns="http://www.w3.org/2000/svg" width="32" height="32" fill="none" data-fui-icon="true" viewBox="0 0 32 32"><path stroke="currentColor" stroke-linecap="round" stroke-linejoin="round" stroke-width="1.5" d="M29.25 18.75c0 3.818-4.611 10.5-12.55 10.5-7.764 0-12.584-6.39-12.793-10.244"/><path stroke="currentColor" stroke-linecap="round" stroke-linejoin="round" stroke-width="1.5" d="M10.25 18.75h-6a1.5 1.5 0 0 0-1.5 1.5v6m0-13c0-3.818 4.611-10.5 12.55-10.5 7.764 0 12.584 6.39 12.793 10.244"/><path stroke="currentColor" stroke-linecap="round" stroke-linejoin="round" stroke-width="1.5" d="M21.75 13.25h6a1.5 1.5 0 0 0 1.5-1.5v-6"/></svg>
